X:18411
T:Waltz from Levkivka
S:A. Humenyuk
R:waltz
Q:72
O:Ukraine
M:3/4
L:1/4
A:village of Levkivka, Vinnyts'kiy
K:EMin
B |: \
g2 f | e c A | B3-|B3 | B ^d f | \
a g f | e3- | e z B | g2 e | \
e c A | B3- | B A G | F2 A | \
G2 F | E3-|E z2 :|
|: D3 | G3 | B3- | B A G | \
F3 | F G F | E3 | B,3 | \
E3 | G3 | B3-| B A G | \
F2 A | G2 F | E3 | E z2 :|


